X: 15985
T: Gravel Walk, The
R: jig
M: 6/8
K: Gmajor
G|:A2e cAe|AeA dBG|A2e cAe|gfg dBG:|A2a gAf|
AeA dBG|A2a gAe|gfg dBG|A2a gAf|AeA dBG|
ABc efg|ded BAG||cA/A/A AEA|cBc dBG|cA/A/A AEA|
gfg dBG|cA/A/A AEA|c3 dBG|cA/A/A AEA|gfg dBG|
|:c2g acg|cgB dBG|c2g ag/g/g|gfg dBG|c2g acg|cgB dBG|
[1ABc efg|ded BAG:|2 ea/a/a age|gfg dBG||

